X: 10943
M: 2/4
L: 1/16
K: D
fg |\
a2a2 d'2d'2 | b2b2 e2e2 | a2a2 dcdf | e^def e2fg |\
a2a2 d'2d'2 | b2b2 e2e2 | a2af edef | d4 z2 H|]
d2 |\
d2d2 f2f2 | d2d2 B2b2 | ^a2a2 babd' | c'2^a2 f2Bc |\
d2d2 f2f2 | d2d2 b2b2 | dcde f2^A2 | B4 "^D.C."z2 |]


